X:1
T:Title
%%score { ( 1 3 ) | ( 2 4 ) }
L:1/8
M:4/4
K:G
V:1 treble nm="Grand Piano"
V:3 treble 
V:2 bass 
V:4 bass 
V:1
 z4 z2[Q:1/4=100] D>D | G2 G2 G>D G>B | d2 [CFd]2 [DGd]2 [EGc]>[EGc] | %3
 [DGB]2 [DGB]2 [^CGB]2 [CGA]2 | [DFA]6 D>D | G2 G2 G>D G>B | d2 [CFd]2 [DGd]2 [EGc]>[EGc] | %7
 [DGB]2 [^CGB]2 [DFB]2 [=CFA]2 |[M:3/4] [B,DG]6 |[M:1/4] B>B |[M:4/4] c6 z2 | z2 d4 z2 | %12
 [Fc]2 z2 z4 | A6 z2 | G2 G2 G>D G>B | d2 [CFd]2 [DGd]2 [EGc]2 | %16
 [DGB]2 [DGB]>[B,G] [CFA]2 [CFA]>[CDA] |[M:3/4] [G,B,DG]6 |] %18
V:2
 z4 z2 [G,B,]>[G,B,] | [G,B,D]2 [G,CE]2 [G,B,D]>[G,B,] [G,B,D]>[G,D] | [G,,B,G]2 A,,2 B,,2 C,>C, | %3
 D,2 D,2 E,2 A,,2 | D,6 [F,C]>[F,C] | [G,B,D]2 [G,CE]2 [G,B,D]>[G,B,] [G,B,D]>[G,D] | %6
 [G,,B,G]2 A,,2 B,,2 C,>C, | D,2 E,2 D,2 D,2 |[M:3/4] G,,6 |[M:1/4][K:treble] G>G | %10
[M:4/4] A6[K:bass][K:treble] z2 | z2 [G,G]2 z4[K:bass] | A,2 F,2 G,2 G,2 | %13
 D,2 [E,^C]2 [D,D]2 [F,=C]2 | [G,B,D]2 [G,CE]2 [G,B,D]>[G,B,] [G,B,D]>[G,D] | %15
 [G,,B,G]2 A,,2 B,,2 C,2 | D,2 D,>D, D,2 D,>D, |[M:3/4] G,,6 |] %18
V:3
 x8 | x8 | x8 | x8 | x8 | x8 | x8 | x8 |[M:3/4] x6 |[M:1/4] x2 |[M:4/4] z2 D>D D>A B>c | %11
 d2 z2 G2 [DGB]2 | D2- [D-Ac]2 [D-GB]2 [D-GB]2 | [DF]2 G2 F2 D2 | x8 | x8 | x8 |[M:3/4] x6 |] %18
V:4
 x8 | x8 | x8 | x8 | x8 | x8 | x8 | x8 |[M:3/4] x6 |[M:1/4][K:treble] x2 | %10
[M:4/4] z2[K:bass] D,>D, D,>[K:treble][CDF] [B,DG]>[A,DF] | [G,B,G]2 B,2- [G,B,]2[K:bass] G,2 | %12
 x8 | x8 | x8 | x8 | x8 |[M:3/4] x6 |] %18

